X: 20842
Q: "Moderate."
M: C
L: 1/8
K: C
c2c>c A2A2 | B2c2 d2d>d |\
e2e2 A2A2 | d2(dc) B2zG |\
c2c2 A2A2 | d2(dc) B2e>f |\
g2g2 a2^f2 | g2z2 z2e>f |\
g2(gf) e2e2 | f2f>e d2z2 |\
e2e>e AAA2 |
d2(dc) {c}B2zG |\
c2c>B A2A2 | d2d>c B2z2 |\
g4 e2c2 | A>cB2 c2z2 |\
d2d>d d2z2 | g2g>g g2z2 |\
g4 e2c2 | A>cB2 c2z2 |\
g4 e2c2 | A>c B2c2 |]


